_includes/icons/ios-source-code.svg

<svg fill="#666" height="50" viewBox="0 0 50 50" width="50" xmlns="http://www.w3.org/2000/svg"><path d="m30.0625 7.65625-12 34 1.875.6875 12-34zm-20.125 5.6875-9.21875 11-.53125.65625.53125.65625 9.21875 11 1.53125-1.3125-8.625-10.34375 8.625-10.34375zm30.125 0-1.53125 1.3125 8.625 10.34375-8.625 10.34375 1.53125 1.3125 9.21875-11 .53125-.65625-.53125-.65625z"/></svg>

<svg xmlns="http://www.w3.org/2000/svg" viewBox="0 0 50 50" width="50" height="50" fill="#666"><path d="M 30.0625 7.65625 L 18.0625 41.65625 L 19.9375 42.34375 L 31.9375 8.34375 Z M 9.9375 13.34375 L 0.71875 24.34375 L 0.1875 25 L 0.71875 25.65625 L 9.9375 36.65625 L 11.46875 35.34375 L 2.84375 25 L 11.46875 14.65625 Z M 40.0625 13.34375 L 38.53125 14.65625 L 47.15625 25 L 38.53125 35.34375 L 40.0625 36.65625 L 49.28125 25.65625 L 49.8125 25 L 49.28125 24.34375 Z"/></svg>
